X:1
T:Caravan
M:4/4
L:1/4
C:Duke Ellington (1936)
R:Uptempo
F:https://www.youtube.com/watch?v=DPgSiTh-GBk
K:Abmaj
P:A
|: "C7" c4-|c4| z d cG |Bc (3e/2=e/2-e/2 G | B4-|B4|
z cdc|dc =B =E| B4-|B4| zc _cB|=A_A_G=E| "Fm7" F4 | z4| z4 | z4 :|
P:B
"F7" f4 | =d2 c2 | G4- | G2 F2 | "Bb7" c4 | G2 F2 | C4- | C4 | "Eb7" e4 | c2 B2 | E4- |
E2 D E | "Ab" A4 - | A2 B A | "C7" G4- | G4|]
